ui/StatusQ/src/assets/img/icons/keyboard.svg

<svg fill="none" height="24" viewBox="0 0 24 24" width="24" xmlns="http://www.w3.org/2000/svg"><g fill="#000"><path d="m7 16.5c0-.5523.44772-1 1-1h8c.5523 0 1 .4477 1 1s-.4477 1-1 1h-8c-.55228 0-1-.4477-1-1z"/><path d="m7 7c-.55228 0-1 .44772-1 1v.5c0 .55228.44772 1 1 1h.5c.55228 0 1-.44772 1-1v-.5c0-.55228-.44772-1-1-1z"/><path d="m8.25 12c0-.5523.44772-1 1-1h.5c.5523 0 1 .4477 1 1v.5c0 .5523-.4477 1-1 1h-.5c-.55228 0-1-.4477-1-1z"/><path d="m14.25 11c-.5523 0-1 .4477-1 1v.5c0 .5523.4477 1 1 1h.5c.5523 0 1-.4477 1-1v-.5c0-.5523-.4477-1-1-1z"/><path d="m10.75 8c0-.55228.4477-1 1-1h.5c.5523 0 1 .44772 1 1v.5c0 .55228-.4477 1-1 1h-.5c-.5523 0-1-.44772-1-1z"/><path d="m16.5 7c-.5523 0-1 .44772-1 1v.5c0 .55228.4477 1 1 1h.5c.5523 0 1-.44772 1-1v-.5c0-.55228-.4477-1-1-1z"/><path clip-rule="evenodd" d="m6 3c-2.20914 0-4 1.79086-4 4v10c0 2.2091 1.79086 4 4 4h12c2.2091 0 4-1.7909 4-4v-10c0-2.20914-1.7909-4-4-4zm12 1.5h-12c-1.38071 0-2.5 1.11929-2.5 2.5v10c0 1.3807 1.11929 2.5 2.5 2.5h12c1.3807 0 2.5-1.1193 2.5-2.5v-10c0-1.38071-1.1193-2.5-2.5-2.5z" fill-rule="evenodd"/></g></svg>

<svg width="24" height="24" viewBox="0 0 24 24" fill="none" xmlns="http://www.w3.org/2000/svg">
<path d="M7 16.5C7 15.9477 7.44772 15.5 8 15.5H16C16.5523 15.5 17 15.9477 17 16.5C17 17.0523 16.5523 17.5 16 17.5H8C7.44772 17.5 7 17.0523 7 16.5Z" fill="black"/>
<path d="M7 7C6.44772 7 6 7.44772 6 8V8.5C6 9.05228 6.44772 9.5 7 9.5H7.5C8.05228 9.5 8.5 9.05228 8.5 8.5V8C8.5 7.44772 8.05228 7 7.5 7H7Z" fill="black"/>
<path d="M8.25 12C8.25 11.4477 8.69772 11 9.25 11H9.75C10.3023 11 10.75 11.4477 10.75 12V12.5C10.75 13.0523 10.3023 13.5 9.75 13.5H9.25C8.69772 13.5 8.25 13.0523 8.25 12.5V12Z" fill="black"/>
<path d="M14.25 11C13.6977 11 13.25 11.4477 13.25 12V12.5C13.25 13.0523 13.6977 13.5 14.25 13.5H14.75C15.3023 13.5 15.75 13.0523 15.75 12.5V12C15.75 11.4477 15.3023 11 14.75 11H14.25Z" fill="black"/>
<path d="M10.75 8C10.75 7.44772 11.1977 7 11.75 7H12.25C12.8023 7 13.25 7.44772 13.25 8V8.5C13.25 9.05228 12.8023 9.5 12.25 9.5H11.75C11.1977 9.5 10.75 9.05228 10.75 8.5V8Z" fill="black"/>
<path d="M16.5 7C15.9477 7 15.5 7.44772 15.5 8V8.5C15.5 9.05228 15.9477 9.5 16.5 9.5H17C17.5523 9.5 18 9.05228 18 8.5V8C18 7.44772 17.5523 7 17 7H16.5Z" fill="black"/>
<path fill-rule="evenodd" clip-rule="evenodd" d="M6 3C3.79086 3 2 4.79086 2 7V17C2 19.2091 3.79086 21 6 21H18C20.2091 21 22 19.2091 22 17V7C22 4.79086 20.2091 3 18 3H6ZM18 4.5H6C4.61929 4.5 3.5 5.61929 3.5 7V17C3.5 18.3807 4.61929 19.5 6 19.5H18C19.3807 19.5 20.5 18.3807 20.5 17V7C20.5 5.61929 19.3807 4.5 18 4.5Z" fill="black"/>
</svg>
